svg/pencil_off_outline.svg

<svg xmlns="http://www.w3.org/2000/svg" viewBox="0 0 24 24"><path d="m10 10.2 4-4 3.8 3.8-4 4-1.4-1.4L15 9.9l-.9-.9-2.6 2.6zm10.7-4.6-2.3-2.3c-.2-.2-.5-.3-.7-.3s-.5.1-.7.3l-1.8 1.8L19 8.9 20.7 7c.4-.3.4-1 0-1.4M19 21.7 17.7 23l-6.5-6.5L6.8 21H3v-3.8l4.5-4.5L1 6.3 2.3 5zm-9.2-6.6-.9-.9L5 18.1v.9h.9z"/></svg>

<?xml version="1.0" encoding="UTF-8"?><!DOCTYPE svg PUBLIC "-//W3C//DTD SVG 1.1//EN" "http://www.w3.org/Graphics/SVG/1.1/DTD/svg11.dtd"><svg xmlns="http://www.w3.org/2000/svg" xmlns:xlink="http://www.w3.org/1999/xlink" version="1.1" id="mdi-pencil-off-outline" width="24" height="24" viewBox="0 0 24 24"><path d="M10,10.2L14,6.2L17.8,10L13.8,14L12.4,12.6L15,9.9L14.1,9L11.5,11.6L10,10.2M20.7,5.6L18.4,3.3C18.2,3.1 17.9,3 17.7,3C17.5,3 17.2,3.1 17,3.3L15.2,5.1L19,8.9L20.7,7C21.1,6.7 21.1,6 20.7,5.6M19,21.7L17.7,23L11.2,16.5L6.8,21H3V17.2L7.5,12.7L1,6.3L2.3,5L19,21.7M9.8,15.1L8.9,14.2L5,18.1V19H5.9L9.8,15.1Z" /></svg>
